!!!OTL: "Die Belagerung von Koeln" Der Churfuerst und der Falkenberger
!!!ARE: Europa, Mitteleuropa, Deutschland
!!!SCT: Z1087
!!!YEM: Copyright 1995, estate of Helmut Schaffrath.
**kern
*ICvox
*Ivox
*M4/4
*k[f#c#g#]
*A:
{4e
=1
4a
4g#
4a
4b
=2
8cc#
8cc#
8cc#
8cc#
4r}
{4b
=3
8cc#
8b
8cc#
8dd
4ee
8dd
8cc#
=4
8cc#
8b
8b
8b
4r}
{8b
8cc#
=5
8ee
8ff#
8ee
8dd
4.cc#
8cc#
=6
8ff#
8ee
8dd
8cc#
4.b}
{8b
=7
8cc#
8b
8cc#
8dd
4ee
8dd
8cc#
=8
8ee
8ee
8ee
8ee
4.ee}
{8e
=9
2e
4r}
==
!!!AGN: Romanze, Ballade
!!!ONB: ESAC (Essen Associative Code) Database: ZUCCAL
!!!AMT: simple quadruple
!!!AIN: vox
!!!EED: Helmut Schaffrath
!!!EEV: 1.0
*-
